X:43
T:In the Tararua Ranges
Q:300
C:Wellington Tramping Club
M:6/8
L:1/4
K:C
E z/4|&quot;C&quot;G2 E| G2 E|C C C/ z/ | C2 z|
W:A           -         way,    a     -       way   with           bil  -  ly    and                     pack
&quot;G7&quot;D D D|C2 D|E2 F |&quot;C&quot;G2 E |
W:Lol   -  lop   -   ing                   down    the                  moun  -   tain                   track,  We'll 
G2 G | G2 E|C C C/ z/ | C D E |
W:all      get                 lost     and                nev  -   er     come                         back,     In       the 
&quot;G7&quot;F2 D| B,2 G,|&quot;C&quot;C3|C3|| 
W:Ta     -    ra          -           ru     -     a                        Ran               -                  ges.
